lut/xd_day.cube
TITLE "Generated by Resolve"
LUT_3D_SIZE 9
0 0 0
0.0144656 0 0
0.100084 0 0
0.272496 0 0
0.558923 0 0
0.851957 0 0.0269932
0.98291 0 0.0576333
0.98294 0 0.0686503
0.98294 0 0.0706798
0 0.0246891 0
0.00195315 0.0252079 0
0.0998093 0.0214542 0
0.287205 0.0031281 0
0.577478 0 0
0.872084 0 0.0259403
0.982895 0 0.0565652
0.982925 0 0.0664836
0.98294 0 0.0686961
0 0.112276 0
0 0.114946 0
0.0786908 0.115038 0
0.288304 0.105409 0
0.588174 0.0638132 0
0.880079 0 0.0151369
0.982864 0 0.0482032
0.98291 0 0.0585184
0.98291 0 0.0610666
0 0.29192 0
0 0.299489 0
0 0.300679 0
0.248753 0.299809 0
0.580926 0.2851 0
0.887617 0.254658 0
0.992966 0.220096 0.00102235
0.992828 0.202823 0.01561
0.992706 0.193347 0.020676
0 0.560388 0
0 0.569528 0
0 0.572168 0
0.00813306 0.572641 0
0.523522 0.569345 0
0.862165 0.556222 0
0.995575 0.542214 0
0.995529 0.534722 0
0.995514 0.529503 0
0 0.829175 0
0 0.83827 0
0 0.841321 0
0 0.841733 0
0.370687 0.843793 0
0.799329 0.837018 0
0.996353 0.828717 0
0.996353 0.82385 0
0.996338 0.820005 0
0 0.989456 0
0 0.989456 0
0 0.989456 0
0 0.989456 0
0.0508431 0.992187 0
0.725643 0.996597 0
0.975723 0.99646 0
0.996429 0.996429 0
0.996429 0.996429 0
0 0.989456 0
0 0.989456 0
0 0.989456 0
0 0.989456 0
0 0.989456 0
0.699931 0.996582 0
0.957015 0.99649 0
0.996429 0.996429 0
0.996429 0.996429 0
0 0.989456 0
0 0.989456 0
0 0.989456 0
0 0.989456 0
0 0.989731 0
0.698573 0.996582 0
0.954482 0.99649 0
0.996429 0.996429 0
0.996429 0.996429 0
0 0 0.0289158
0.0101625 0 0.0288396
0.0977951 0 0.0261692
0.271595 0 0.0258335
0.558541 0 0.0365759
0.852171 0 0.0585489
0.982971 0 0.081117
0.982986 0 0.0894331
0.982986 0 0.0903334
0 0.0147402 0.0242161
0 0.0148928 0.0257267
0.0979934 0.0111849 0.025864
0.286137 0 0.0264134
0.577996 0 0.0377356
0.872541 0 0.0607462
0.982971 0 0.082887
0.982986 0 0.0902113
0.982986 0 0.0912642
0 0.107591 0.0105592
0 0.11014 0.0121004
0.0770123 0.110124 0.0143893
0.28867 0.100267 0.0181735
0.589166 0.0564126 0.0328069
0.881056 0 0.054139
0.982956 0 0.077348
0.982971 0 0.0848249
0.982986 0 0.086183
0 0.290471 0
0 0.298009 0
0 0.299382 0
0.248966 0.298482 0
0.581979 0.283986 0
0.889067 0.253697 0.00827039
0.993301 0.218952 0.0437018
0.993072 0.201556 0.0552377
0.99292 0.19202 0.0582589
0 0.560372 0
0 0.569467 0
0 0.572045 0
0.00637827 0.572747 0
0.524987 0.569497 0
0.863386 0.556313 0
0.995575 0.542336 0
0.995544 0.535195 0
0.995514 0.529976 0
0 0.829618 0
0 0.839017 0
0 0.842069 0
0 0.842222 0
0.372778 0.844541 0
0.800778 0.837736 0
0.996353 0.829389 0
0.996353 0.824887 0
0.996338 0.820981 0
0 0.989456 0
0 0.989456 0
0 0.989456 0
0 0.989456 0
0.0496376 0.992172 0
0.727504 0.996597 0
0.976333 0.99646 0
0.996429 0.996429 0
0.996429 0.996429 0
0 0.989456 0
0 0.989456 0
0 0.989456 0
0 0.989456 0
0 0.989456 0
0.70219 0.996582 0
0.957702 0.99649 0
0.996429 0.996429 0
0.996429 0.996429 0
0 0.989456 0
0 0.989456 0
0 0.989456 0
0 0.989456 0
0 0.990005 0
0.701564 0.996582 0
0.955245 0.99649 0
0.996429 0.996429 0
0.996429 0.996429 0
0 0 0.118029
0 0 0.11696
0.0917525 0 0.113436
0.268849 0 0.11046
0.557595 0 0.112245
0.851606 0 0.121569
0.983063 0 0.13434
0.983063 0 0.138857
0.983063 0 0.138048
0 0 0.11574
0 0 0.118257
0.0909438 0 0.116915
0.283192 0 0.114961
0.577249 0 0.117662
0.872496 0 0.127382
0.983063 0 0.139757
0.983078 0 0.143648
0.983078 0 0.143267
0 0.0913863 0.108492
0 0.0936141 0.112093
0.0704662 0.0932479 0.114183
0.28719 0.0819715 0.11516
0.588266 0.0310521 0.118898
0.881148 0 0.125536
0.983063 0 0.138109
0.983063 0 0.141802
0.983063 0 0.141634
0 0.285588 0.0690471
0 0.293019 0.0722972
0 0.294331 0.0738079
0.248035 0.29366 0.0799878
0.582757 0.278874 0.0905623
0.890181 0.247547 0.108446
0.993545 0.21146 0.124437
0.993255 0.193851 0.129107
0.993057 0.184085 0.129244
0 0.558389 0
0 0.567391 0
0 0.570245 0
0.000946059 0.570428 0
0.525093 0.567651 0
0.863874 0.554406 0
0.995743 0.540841 0
0.995804 0.533532 0
0.995789 0.528679 0
0 0.828687 0
0 0.83801 0
0 0.841291 0
0 0.841672 0
0.373465 0.843931 0
0.801389 0.83711 0
0.996353 0.828885 0
0.996353 0.824323 0
0.996338 0.820539 0
0 0.989456 0
0 0.989456 0
0 0.989456 0
0 0.989456 0
0.0438849 0.99205 0
0.728649 0.996597 0
0.976486 0.99646 0
0.996429 0.996429 0
0.996429 0.996429 0
0 0.989456 0
0 0.989456 0
0 0.989456 0
0 0.989456 0
0 0.989654 0
0.70399 0.996582 0
0.958099 0.99649 0
0.996429 0.996429 0
0.996429 0.996429 0
0 0.989456 0
0 0.989456 0
0 0.989456 0
0 0.989456 0
0 0.990234 0
0.702998 0.996582 0
0.955627 0.99649 0
0.996429 0.996429 0
0.996429 0.996429 0
0 0 0.296788
0 0 0.295628
0.0609445 0 0.292042
0.257572 0 0.286046
0.552758 0 0.280613
0.849012 0 0.278553
0.983078 0 0.279438
0.983078 0 0.277256
0.983093 0 0.27248
0 0 0.297688
0 0 0.303075
0.0570535 0 0.302495
0.272602 0 0.298543
0.573343 0 0.294499
0.870542 0 0.293492
0.983078 0 0.295079
0.983078 0 0.293584
0.983078 0 0.289616
0 0 0.29543
0 0 0.30222
0.025742 0 0.303655
0.272328 0 0.300633
0.58024 0 0.297795
0.879347 0 0.297581
0.983063 0 0.299672
0.983063 0 0.298512
0.983078 0 0.295384
0 0.254353 0.283391
0 0.261219 0.291188
0 0.262226 0.293278
0.235935 0.26099 0.296788
0.579461 0.244144 0.29781
0.888411 0.207462 0.300191
0.992889 0.161257 0.302785
0.992309 0.13756 0.301549
0.992004 0.125658 0.298421
0 0.547295 0.2327
0 0.5561 0.241291
0 0.558801 0.244404
0 0.558129 0.246601
0.522484 0.556359 0.254612
0.863981 0.542931 0.260822
0.997299 0.52871 0.26659
0.997253 0.521691 0.266682
0.997223 0.51696 0.264027
0 0.823209 0.0782483
0 0.832166 0.0906081
0 0.835355 0.0961624
0 0.835706 0.100771
0.369207 0.83801 0.11783
0.801266 0.831357 0.13669
0.997894 0.823407 0.150057
0.997894 0.818967 0.152331
0.997879 0.81529 0.149981
0 0.989334 0
0 0.989578 0
0 0.989609 0
0 0.989639 0
0.00936904 0.991409 0
0.727306 0.996994 0.00563058
0.975204 0.996902 0.00848402
0.996826 0.996826 0.00588998
0.996765 0.996765 0.0012665
0 0.989456 0
0 0.989456 0
0 0.989456 0
0 0.989456 0
0 0.989853 0
0.702266 0.996582 0
0.956527 0.99649 0
0.996445 0.996445 0
0.996445 0.996445 0
0 0.989456 0
0 0.989456 0
0 0.989456 0
0 0.989456 0
0 0.990463 0
0.701625 0.996582 0
0.95407 0.99649 0
0.996429 0.996429 0
0.996429 0.996429 0
0 0 0.542229
0 0 0.542977
0 0 0.540108
0.220935 0 0.53492
0.538674 0 0.527703
0.841352 0 0.521752
0.982742 0 0.517754
0.982742 0 0.513451
0.982757 0 0.507485
0 0 0.546822
0 0 0.552239
0 0 0.552331
0.236851 0 0.549355
0.559808 0 0.543877
0.863264 0 0.539162
0.982696 0 0.536645
0.982712 0 0.533074
0.982712 0 0.528023
0 0 0.546487
0 0 0.553582
0 0 0.55491
0.236286 0 0.553246
0.566918 0 0.548669
0.872343 0 0.544991
0.982681 0 0.543465
0.982696 0 0.540551
0.982696 0 0.536461
0 0.0908064 0.54377
0 0.107179 0.551507
0 0.110201 0.553765
0.189853 0.106218 0.555642
0.563653 0.0794232 0.553155
0.876448 0.0277867 0.549065
0.982681 0 0.543145
0.982696 0 0.540719
0.98291 0 0.537469
0 0.504723 0.522469
0 0.513619 0.530953
0 0.515923 0.533913
0 0.515129 0.53521
0.5084 0.51284 0.540581
0.857481 0.498009 0.541436
0.997421 0.482673 0.541924
0.99736 0.47512 0.540246
0.997314 0.470253 0.537224
0 0.80116 0.479896
0 0.809857 0.489082
0 0.812909 0.492561
0 0.813046 0.494362
0.346532 0.815366 0.502007
0.794751 0.808652 0.505409
0.998993 0.800427 0.507042
0.998978 0.796017 0.505577
0.998978 0.792599 0.503044
0 0.990677 0.429877
0 0.991882 0.441764
0 0.991882 0.446632
0 0.991897 0.449409
0 0.991897 0.452018
0.721202 0.99881 0.46305
0.971527 0.997665 0.46537
0.999283 0.996521 0.464347
0.999268 0.996353 0.461509
0 0.991806 0.408911
0 0.991836 0.422873
0 0.991852 0.429053
0 0.991852 0.432425
0 0.99234 0.436439
0.696208 0.999283 0.44741
0.95314 0.999298 0.450355
0.999237 0.999237 0.449409
0.999237 0.999237 0.446479
0 0.991806 0.40351
0 0.991836 0.418448
0 0.991852 0.42501
0 0.991852 0.429145
0 0.992752 0.433951
0.695888 0.999268 0.445258
0.950713 0.999298 0.448173
0.999237 0.999237 0.447776
0.999237 0.999237 0.445197
0 0 0.784268
0 0 0.786145
0 0 0.78381
0.133959 0 0.780499
0.512612 0 0.773129
0.827405 0 0.766262
0.982116 0 0.761135
0.982132 0 0.756481
0.982147 0 0.750851
0 0 0.790616
0 0 0.795926
0 0 0.795941
0.153857 0 0.794675
0.534844 0 0.788663
0.849607 0 0.783261
0.982071 0 0.779461
0.982071 0 0.77583
0.982086 0 0.770901
0 0 0.791135
0 0 0.797909
0 0 0.799023
0.150393 0 0.798703
0.542428 0 0.793912
0.859251 0 0.789578
0.98204 0 0.786557
0.982055 0 0.783566
0.982071 0 0.779568
0 0 0.788296
0 0 0.795834
0 0 0.797787
0.0708171 0 0.798596
0.532677 0 0.794171
0.858106 0 0.790433
0.98204 0 0.788235
0.98204 0 0.785855
0.982055 0 0.782376
0 0.411582 0.780331
0 0.422034 0.788083
0 0.425116 0.790707
0 0.423835 0.791623
0.479667 0.419135 0.796155
0.843549 0.399725 0.795316
0.996384 0.37911 0.794369
0.996262 0.369558 0.792386
0.996185 0.363317 0.789548
0 0.75668 0.756085
0 0.765423 0.764218
0 0.768475 0.767407
0 0.76875 0.76878
0.29575 0.77026 0.77499
0.780285 0.763394 0.777157
0.998138 0.754696 0.777096
0.99913 0.750057 0.775631
0.999115 0.746563 0.773312
0 0.970428 0.729412
0 0.972641 0.739147
0 0.973281 0.742977
0 0.972992 0.744945
0 0.971084 0.746426
0.705303 0.973495 0.755428
0.960784 0.968582 0.75639
0.999741 0.966537 0.754894
0.999741 0.965515 0.752773
0 0.992187 0.719295
0 0.992203 0.730022
0 0.992203 0.734295
0 0.992203 0.736904
0 0.992447 0.738888
0.679927 0.999756 0.748272
0.942214 0.999847 0.749477
0.999802 0.999802 0.748394
0.999802 0.999802 0.74638
0 0.992187 0.716854
0 0.992203 0.727871
0 0.992203 0.732692
0 0.992203 0.735561
0 0.992233 0.73785
0.679561 0.999756 0.747723
0.939879 0.999847 0.749157
0.999481 0.999802 0.748257
0.999802 0.999802 0.746487
0 0 0.957961
0 0 0.959228
0 0 0.95819
0 0 0.956802
0.482994 0 0.952697
0.811887 0 0.947875
0.981537 0 0.944961
0.981552 0 0.94287
0.981552 0 0.940307
0 0 0.961639
0 0 0.964401
0 0 0.964508
0.0203098 0 0.964645
0.508003 0 0.960296
0.835615 0 0.956252
0.981506 0 0.954131
0.981506 0 0.952422
0.981521 0 0.950164
0 0 0.962112
0 0 0.965087
0 0 0.965591
0.0392462 0 0.966445
0.517052 0 0.962631
0.845945 0 0.959243
0.981491 0 0.957565
0.981506 0 0.956237
0.981506 0 0.95436
0 0 0.959915
0 0 0.96318
0 0 0.963912
0 0 0.96434
0.506966 0 0.961624
0.845121 0 0.958541
0.981491 0 0.957412
0.981491 0 0.956588
0.981506 0 0.955001
0 0.269947 0.956054
0 0.292714 0.959167
0 0.299855 0.960098
0 0.299077 0.960571
0.449058 0.285832 0.964157
0.828367 0.247028 0.962905
0.993423 0.210361 0.961852
0.993011 0.191684 0.960952
0.992615 0.175219 0.959655
0 0.706752 0.937896
0 0.717906 0.940993
0 0.721935 0.942016
0 0.722133 0.942672
0.243473 0.723033 0.948363
0.765759 0.715557 0.950698
0.993286 0.705821 0.951263
0.998932 0.700359 0.951019
0.998901 0.696025 0.950256
0 0.936339 0.918486
0 0.939956 0.922103
0 0.941161 0.923522
0 0.940963 0.9243
0 0.938598 0.925566
0.688884 0.940291 0.934188
0.949813 0.935027 0.935332
0.999817 0.932754 0.935012
0.999802 0.93138 0.934295
0 0.992233 0.910964
0 0.992233 0.915236
0 0.992233 0.916899
0 0.992233 0.918013
0 0.992233 0.919173
0.663233 0.99971 0.928435
0.931319 0.999069 0.929671
0.995193 0.998138 0.929458
0.999954 0.997971 0.92874
0 0.992233 0.909392
0 0.992233 0.913741
0 0.992233 0.915541
0 0.992233 0.916716
0 0.992233 0.91812
0.662989 0.999847 0.927474
0.928954 1 0.928923
0.990814 0.999969 0.928801
0.999969 0.999969 0.928176
0 0 0.989883
0 0 0.989883
0 0 0.989883
0 0 0.989883
0.469459 0 0.987396
0.804776 0 0.983566
0.981414 0 0.981414
0.981414 0 0.981414
0.981414 0 0.981414
0 0 0.989883
0 0 0.989883
0 0 0.989883
0.00682078 0 0.990524
0.496971 0 0.987106
0.829908 0 0.983261
0.981414 0 0.981414
0.981414 0 0.981414
0.981414 0 0.981414
0 0 0.989883
0 0 0.989883
0 0 0.989883
0.0181735 0 0.990616
0.506996 0 0.986999
0.840879 0 0.983139
0.981414 0 0.981414
0.981414 0 0.981414
0.981414 0 0.981414
0 0 0.989883
0 0 0.989883
0 0 0.989883
0 0 0.989899
0.4972 0 0.987106
0.840406 0 0.983139
0.981414 0 0.981414
0.981414 0 0.981414
0.981414 0 0.981414
0 0.173449 0.994492
0 0.215793 0.994614
0 0.228962 0.994644
0 0.230137 0.994644
0.437064 0.21767 0.996887
0.822736 0.182712 0.994049
0.991745 0.145113 0.991745
0.991135 0.124941 0.991135
0.990738 0.112459 0.990738
0 0.686229 0.993469
0 0.698848 0.993606
0 0.703334 0.993561
0 0.703731 0.993545
0.223987 0.70425 0.998199
0.760784 0.696437 0.99942
0.991562 0.686213 0.998856
0.99881 0.680568 0.99881
0.998779 0.675715 0.998779
0 0.922454 0.979599
0 0.926879 0.980026
0 0.928435 0.980148
0 0.928359 0.980484
0 0.926009 0.981491
0.683299 0.927581 0.990127
0.945968 0.922011 0.991531
0.999802 0.919493 0.991867
0.999786 0.91812 0.991882
0 0.991806 0.972717
0 0.991791 0.973526
0 0.99173 0.973846
0 0.991287 0.974227
0 0.989883 0.975143
0.657633 0.993027 0.984314
0.927459 0.988708 0.98587
0.991196 0.987152 0.98613
0.999969 0.986679 0.986084
0 0.992218 0.971252
0 0.992218 0.972152
0 0.992218 0.972457
0 0.992218 0.972885
0 0.992218 0.9738
0.657862 0.999863 0.983063
0.925277 0.999985 0.984619
0.986831 0.999557 0.984863
0.999985 0.99939 0.984848
0 0 0.989883
0 0 0.989883
0 0 0.989883
0 0 0.989883
0.466392 0 0.987427
0.803128 0 0.983581
0.981414 0 0.981414
0.981414 0 0.981414
0.981414 0 0.981414
0 0 0.989883
0 0 0.989883
0 0 0.989883
0.00370794 0 0.990494
0.494667 0 0.987121
0.828748 0 0.983276
0.981414 0 0.981414
0.981414 0 0.981414
0.981414 0 0.981414
0 0 0.989883
0 0 0.989883
0 0 0.989883
0.0125124 0 0.99057
0.505196 0 0.987015
0.840314 0 0.983139
0.981414 0 0.981414
0.981414 0 0.981414
0.981414 0 0.981414
0 0 0.989883
0 0 0.989883
0 0 0.989883
0 0 0.989883
0.495644 0 0.987121
0.840146 0 0.983139
0.981414 0 0.981414
0.981414 0 0.981414
0.981414 0 0.981414
0 0.164385 0.994446
0 0.204654 0.994583
0 0.218143 0.994614
0 0.217762 0.994614
0.435386 0.205249 0.996719
0.822019 0.168048 0.993729
0.991226 0.127489 0.991226
0.990555 0.10695 0.990555
0.990143 0.0953078 0.990143
0 0.682368 0.993667
0 0.695232 0.993622
0 0.699748 0.993591
0 0.700069 0.993591
0.220096 0.700847 0.998199
0.760159 0.692958 0.999405
0.991318 0.682704 0.99884
0.998779 0.677073 0.998779
0.998764 0.67219 0.998764
0 0.919966 0.991424
0 0.924346 0.991333
0 0.925811 0.991363
0 0.925826 0.991501
0 0.923461 0.99237
0.683543 0.925002 0.999725
0.945403 0.919387 0.999863
0.999786 0.916869 0.999786
0.999786 0.915496 0.999786
0 0.989731 0.984741
0 0.990082 0.985321
0 0.990204 0.985672
0 0.989899 0.986038
0 0.987716 0.986938
0.658076 0.990433 0.996094
0.927092 0.986084 0.997375
0.990341 0.984573 0.997589
0.999969 0.984085 0.997574
0 0.992218 0.983368
0 0.992218 0.983978
0 0.992218 0.984314
0 0.992218 0.984741
0 0.992218 0.985656
0.658701 0.999863 0.994858
0.924941 0.999252 0.996384
0.985962 0.998764 0.996628
1 0.998505 0.996597
