lut/xd_day.cube
TITLE "Generated by Resolve"
LUT_3D_SIZE 5
0 0 0
0.100084 0 0
0.558923 0 0
0.98291 0 0.0576333
0.98294 0 0.0706798
0 0.112276 0
0.0786908 0.115038 0
0.588174 0.0638132 0
0.982864 0 0.0482032
0.98291 0 0.0610666
0 0.560388 0
0 0.572168 0
0.523522 0.569345 0
0.995575 0.542214 0
0.995514 0.529503 0
0 0.989456 0
0 0.989456 0
0.0508431 0.992187 0
0.975723 0.99646 0
0.996429 0.996429 0
0 0.989456 0
0 0.989456 0
0 0.989731 0
0.954482 0.99649 0
0.996429 0.996429 0
0 0 0.118029
0.0917525 0 0.113436
0.557595 0 0.112245
0.983063 0 0.13434
0.983063 0 0.138048
0 0.0913863 0.108492
0.0704662 0.0932479 0.114183
0.588266 0.0310521 0.118898
0.983063 0 0.138109
0.983063 0 0.141634
0 0.558389 0
0 0.570245 0
0.525093 0.567651 0
0.995743 0.540841 0
0.995789 0.528679 0
0 0.989456 0
0 0.989456 0
0.0438849 0.99205 0
0.976486 0.99646 0
0.996429 0.996429 0
0 0.989456 0
0 0.989456 0
0 0.990234 0
0.955627 0.99649 0
0.996429 0.996429 0
0 0 0.542229
0 0 0.540108
0.538674 0 0.527703
0.982742 0 0.517754
0.982757 0 0.507485
0 0 0.546487
0 0 0.55491
0.566918 0 0.548669
0.982681 0 0.543465
0.982696 0 0.536461
0 0.504723 0.522469
0 0.515923 0.533913
0.5084 0.51284 0.540581
0.997421 0.482673 0.541924
0.997314 0.470253 0.537224
0 0.990677 0.429877
0 0.991882 0.446632
0 0.991897 0.452018
0.971527 0.997665 0.46537
0.999268 0.996353 0.461509
0 0.991806 0.40351
0 0.991852 0.42501
0 0.992752 0.433951
0.950713 0.999298 0.448173
0.999237 0.999237 0.445197
0 0 0.957961
0 0 0.95819
0.482994 0 0.952697
0.981537 0 0.944961
0.981552 0 0.940307
0 0 0.962112
0 0 0.965591
0.517052 0 0.962631
0.981491 0 0.957565
0.981506 0 0.95436
0 0.269947 0.956054
0 0.299855 0.960098
0.449058 0.285832 0.964157
0.993423 0.210361 0.961852
0.992615 0.175219 0.959655
0 0.936339 0.918486
0 0.941161 0.923522
0 0.938598 0.925566
0.949813 0.935027 0.935332
0.999802 0.93138 0.934295
0 0.992233 0.909392
0 0.992233 0.915541
0 0.992233 0.91812
0.928954 1 0.928923
0.999969 0.999969 0.928176
0 0 0.989883
0 0 0.989883
0.466392 0 0.987427
0.981414 0 0.981414
0.981414 0 0.981414
0 0 0.989883
0 0 0.989883
0.505196 0 0.987015
0.981414 0 0.981414
0.981414 0 0.981414
0 0.164385 0.994446
0 0.218143 0.994614
0.435386 0.205249 0.996719
0.991226 0.127489 0.991226
0.990143 0.0953078 0.990143
0 0.919966 0.991424
0 0.925811 0.991363
0 0.923461 0.99237
0.945403 0.919387 0.999863
0.999786 0.915496 0.999786
0 0.992218 0.983368
0 0.992218 0.984314
0 0.992218 0.985656
0.924941 0.999252 0.996384
1 0.998505 0.996597
