lut/xd_day.cube
TITLE "Generated by Resolve"
LUT_3D_SIZE 33
0 0 0
0 0 0
0 0 0
0 0 0
0.0144656 0 0
0.0331121 0 0
0.0527504 0 0
0.0741283 0 0
0.100084 0 0
0.130968 0 0
0.167971 0 0
0.214267 0 0
0.272496 0 0
0.339666 0 0
0.411719 0 0
0.485145 0 0
0.558923 0 0
0.633066 0 0.00257877
0.706935 0 0.00953689
0.780041 0 0.0178225
0.851957 0 0.0269932
0.921447 0 0.0361639
0.970123 0 0.0446326
0.982879 0 0.0518502
0.98291 0 0.0576333
0.98291 0 0.0619974
0.982925 0 0.065156
0.982925 0 0.0672313
0.98294 0 0.0686503
0.98294 0 0.069398
0.98294 0 0.06981
0.98294 0 0.0701457
0.98294 0 0.0706798
0 0 0
0 0 0
0 0 0
0 0 0
0.0142519 0 0
0.0334325 0 0
0.0535286 0 0
0.0755474 0 0
0.10219 0 0
0.133867 0 0
0.171786 0 0
0.219333 0 0
0.278614 0 0
0.346487 0 0
0.418936 0 0
0.492378 0 0
0.566705 0 0
0.640803 0 0.00326543
0.714855 0 0.0103914
0.787823 0 0.0187991
0.859831 0 0.0280308
0.929122 0 0.037171
0.973205 0 0.0455177
0.982879 0 0.0525978
0.98291 0 0.0582437
0.982925 0 0.0624552
0.982925 0 0.065507
0.98294 0 0.0674601
0.98294 0 0.0687724
0.98294 0 0.0694591
0.98294 0 0.0698405
0.98294 0 0.0701915
0.98294 0 0.0707866
0 0 0
0 0 0
0 0 0
0 0 0
0.0108797 0 0
0.0300298 0 0
0.0510109 0 0
0.0742046 0 0
0.101793 0 0
0.13434 0 0
0.173236 0 0
0.221683 0 0
0.281895 0 0
0.350515 0 0
0.423178 0 0
0.49723 0 0
0.571649 0 0
0.646067 0 0.00267033
0.720058 0 0.0099031
0.793256 0 0.0184024
0.865187 0 0.0277562
0.934203 0 0.0369879
0.975372 0 0.0453803
0.982879 0 0.0524605
0.98291 0 0.0580148
0.98291 0 0.0621958
0.982925 0 0.0651865
0.982925 0 0.0670939
0.98294 0 0.0683146
0.98294 0 0.0690013
0.98294 0 0.0694285
0.98294 0 0.0698405
0.98294 0 0.0704509
0 0.00926223 0
0 0.00947585 0
0 0.00965896 0
0 0.009308 0
0.00677501 0.00907912 0
0.026566 0.00843824 0
0.0485695 0.00759899 0
0.0727703 0.00640879 0
0.101305 0.00476081 0
0.134768 0.00250248 0
0.174502 0 0
0.223728 0 0
0.284504 0 0
0.353216 0 0
0.426246 0 0
0.500389 0 0
0.574868 0 0
0.649302 0 0.00161746
0.723613 0 0.00891127
0.797024 0 0.0175021
0.868879 0 0.026978
0.937987 0 0.0363317
0.976822 0 0.0447242
0.982879 0 0.0518502
0.98291 0 0.0574044
0.98291 0 0.0614939
0.982925 0 0.0643626
0.982925 0 0.0663157
0.98294 0 0.0674754
0.98294 0 0.0681315
0.98294 0 0.068574
0.98294 0 0.0690166
0.98294 0 0.0696422
0 0.0246891 0
0 0.0250248 0
0 0.025452 0
0 0.0252995 0
0.00195315 0.0252079 0
0.0220035 0.0247959 0
0.0449378 0.0241245 0
0.0703899 0.0229801 0
0.0998093 0.0214542 0
0.134157 0.0191958 0
0.17499 0.0159152 0
0.225574 0.0108492 0
0.287205 0.0031281 0
0.35584 0 0
0.428717 0 0
0.502663 0 0
0.577478 0 0
0.652262 0 0.000381476
0.726604 0 0.00770581
0.8 0 0.0163424
0.872084 0 0.0259403
0.941009 0 0.0354162
0.978088 0 0.0438544
0.982879 0 0.0510262
0.982895 0 0.0565652
0.98291 0 0.0605631
0.982925 0 0.0634318
0.982925 0 0.0653391
0.982925 0 0.0664836
0.982925 0 0.0671702
0.98294 0 0.0675975
0.98294 0 0.0680552
0.98294 0 0.0686961
0 0.0424353 0
0 0.0428931 0
0 0.0434119 0
0 0.0434272 0
0 0.0433814 0
0.0163424 0.0433509 0
0.040177 0.0428473 0
0.0669261 0.0419318 0
0.0975967 0.0405737 0
0.132967 0.0385138 0
0.17467 0.035462 0
0.226169 0.0305486 0
0.288914 0.0228885 0
0.358862 0.0118105 0
0.431785 0 0
0.505043 0 0
0.579538 0 0
0.654368 0 0
0.728954 0 0.0061799
0.802365 0 0.0148013
0.874434 0 0.024506
0.94345 0 0.034226
0.979263 0 0.042771
0.982879 0 0.0499275
0.982895 0 0.0554971
0.98291 0 0.0594492
0.982925 0 0.0623331
0.982925 0 0.06421
0.982925 0 0.0653391
0.982925 0 0.066041
0.982925 0 0.0664683
0.982925 0 0.0669261
0.98294 0 0.0675975
0 0.0620584 0
0 0.0626383 0
0 0.0633097 0
0 0.063386 0
0 0.063447 0
0.00880446 0.0636301 0
0.0332647 0.0633249 0
0.0619211 0.0626841 0
0.0939956 0.0616159 0
0.130663 0.0599832 0
0.173404 0.0573892 0
0.22591 0.053315 0
0.289784 0.0467384 0
0.360479 0.0368811 0
0.43447 0.0229496 0
0.508644 0.00491341 0
0.58233 0 0
0.656428 0 0
0.730938 0 0.00407416
0.804395 0 0.012726
0.876661 0 0.0225834
0.945602 0 0.0325322
0.980255 0 0.0411994
0.982879 0 0.0484321
0.982895 0 0.0539712
0.98291 0 0.057969
0.98291 0 0.0608682
0.982925 0 0.0627146
0.982925 0 0.0638895
0.982925 0 0.0645762
0.982925 0 0.0650034
0.982925 0 0.0654612
0.982925 0 0.0662089
0 0.0849928 0
0 0.0856794 0
0 0.0866407 0
0 0.0868391 0
0 0.0869612 0
0 0.0872053 0
0.0227054 0.0873426 0
0.0537118 0.0869306 0
0.0881971 0.0861067 0
0.126574 0.0847944 0
0.170871 0.0827344 0
0.224918 0.0793622 0
0.289631 0.0740673 0
0.361379 0.0661631 0
0.436057 0.0549172 0
0.511055 0.0399023 0
0.586007 0.0195315 0
0.660151 0 0
0.73286 0 0.00135805
0.806226 0 0.00961318
0.878523 0 0.0195926
0.947372 0 0.0297856
0.981155 0 0.0387427
0.982864 0 0.046128
0.982879 0 0.0517128
0.982895 0 0.055787
0.98291 0 0.0586862
0.98291 0 0.0605478
0.98291 0 0.0617533
0.982925 0 0.0624552
0.982925 0 0.0629129
0.982925 0 0.0634012
0.982925 0 0.0641642
0 0.112276 0
0 0.113207 0
0 0.114366 0
0 0.114778 0
0 0.114946 0
0 0.115053 0
0.00686656 0.115434 0
0.040177 0.115511 0
0.0786908 0.115038 0
0.119799 0.114015 0
0.166186 0.112367 0
0.222004 0.10959 0
0.288304 0.105409 0
0.361074 0.0991531 0
0.436484 0.0905013 0
0.512413 0.0791485 0
0.588174 0.0638132 0
0.663355 0.0436255 0
0.737591 0.0179294 0.000259403
0.809857 0 0.00730907
0.880079 0 0.0151369
0.948669 0 0.0254978
0.982071 0 0.0348821
0.982849 0 0.0424506
0.982864 0 0.0482032
0.982879 0 0.0524453
0.982895 0 0.0554055
0.98291 0 0.0573129
0.98291 0 0.0585184
0.98291 0 0.0592508
0.98291 0 0.0597543
0.98291 0 0.0602731
0.98291 0 0.0610666
0 0.144549 0
0 0.145647 0
0 0.147036 0
0 0.147707 0
0 0.148104 0
0 0.148196 0
0 0.148287 0
0.0180514 0.148836 0
0.062501 0.148714 0
0.108751 0.148104 0
0.15848 0.146838 0
0.2168 0.144732 0
0.285039 0.141344 0
0.359457 0.136324 0
0.436088 0.12961 0
0.512795 0.12079 0
0.589166 0.109819 0
0.665049 0.095613 0
0.740322 0.0770886 0
0.813779 0.0528267 0.00369268
0.885527 0.0245975 0.0125582
0.952911 0 0.0219425
0.98352 0 0.0294194
0.982834 0 0.0366979
0.982849 0 0.0427558
0.982864 0 0.0471962
0.982879 0 0.050309
0.982879 0 0.0523384
0.982895 0 0.0536049
0.982895 0 0.0543832
0.982895 0 0.0549477
0.982895 0 0.0554971
0.982895 0 0.0563821
0 0.183856 0
0 0.185367 0
0 0.187137 0
0 0.188037 0
0 0.188602 0
0 0.1888 0
0 0.188968 0
0 0.189181 0
0.0315099 0.189685 0
0.0885939 0.189502 0
0.144961 0.188754 0
0.207935 0.187076 0
0.27924 0.184436 0
0.355444 0.180392 0
0.433463 0.175082 0
0.511467 0.168322 0
0.588602 0.159976 0
0.665415 0.149538 0
0.741299 0.136797 0
0.815656 0.121599 0
0.888457 0.101869 0.00459297
0.956909 0.0771344 0.0148318
0.988952 0.0517891 0.0243076
0.98822 0.0343175 0.0324102
0.987686 0.023209 0.0385595
0.987152 0.0138247 0.0428321
0.986679 0.00634775 0.0457465
0.986297 0.0009308 0.0476081
0.985992 0 0.0487068
0.985794 0 0.0493172
0.985611 0 0.0498207
0.985412 0 0.0502785
0.985122 0 0.0510109
0 0.233143 0
0 0.23505 0
0 0.237522 0
0 0.238712 0
0 0.23946 0
0 0.239994 0
0 0.240253 0
0 0.240314 0
0 0.240681 0
0.04477 0.241291 0
0.118883 0.241062 0
0.190906 0.239872 0
0.267964 0.237812 0
0.347936 0.234775 0
0.428244 0.230518 0
0.507805 0.225208 0
0.58613 0.21883 0
0.663844 0.211093 0
0.740398 0.201709 0
0.815641 0.190753 0
0.889067 0.177951 0
0.958312 0.163577 0
0.99173 0.149447 0.0096437
0.991516 0.136446 0.0184787
0.991272 0.124269 0.0255283
0.991028 0.113619 0.0308537
0.990799 0.104799 0.0346227
0.990616 0.0979019 0.0371099
0.990463 0.0926833 0.0386664
0.990356 0.0887617 0.0396429
0.99025 0.0854353 0.0403601
0.990143 0.0818494 0.0410925
0.989975 0.0766155 0.0422522
0 0.29192 0
0 0.294102 0
0 0.296986 0
0 0.298375 0
0 0.299489 0
0 0.30013 0
0 0.300496 0
0 0.300832 0
0 0.300679 0
0 0.301198 0
0.063035 0.301854 0
0.160876 0.301305 0
0.248753 0.299809 0
0.334661 0.297459 0
0.418601 0.294331 0
0.500557 0.290166 0
0.580926 0.2851 0
0.659907 0.279118 0
0.737484 0.272251 0
0.813474 0.264042 0
0.887617 0.254658 0
0.957183 0.244526 0
0.992981 0.23508 0
0.992966 0.227039 0
0.992966 0.220096 0.00102235
0.99292 0.213993 0.00669871
0.992889 0.20914 0.0108797
0.992859 0.205722 0.0136568
0.992828 0.202823 0.01561
0.992798 0.200504 0.0169223
0.992767 0.198489 0.0179599
0.992737 0.195972 0.0191501
0.992706 0.193347 0.020676
0 0.356725 0
0 0.35906 0
0 0.362127 0
0 0.363897 0
0 0.364874 0
0 0.36582 0
0 0.366232 0
0 0.366644 0
0 0.366751 0
0 0.366812 0
0.00575265 0.367391 0
0.101091 0.367758 0
0.217243 0.367224 0
0.314107 0.365469 0
0.403754 0.363012 0
0.489326 0.359655 0
0.572503 0.355581 0
0.653315 0.350835 0
0.732235 0.345403 0
0.809262 0.339223 0
0.884276 0.331991 0
0.954116 0.324208 0
0.993927 0.317479 0
0.993866 0.311208 0
0.993851 0.306157 0
0.99382 0.302022 0
0.993805 0.298436 0
0.99379 0.295903 0
0.993774 0.293645 0
0.993759 0.291768 0
0.993759 0.290105 0
0.993744 0.288304 0
0.993729 0.286244 0
0 0.424079 0
0 0.426703 0
0 0.429801 0
0 0.431342 0
0 0.432609 0
0 0.433585 0
0 0.434058 0
0 0.434485 0
0 0.434867 0
0 0.434653 0
0 0.434699 0
0.0372625 0.435813 0
0.165362 0.435904 0
0.284291 0.434791 0
0.383032 0.432914 0
0.474067 0.430396 0
0.560311 0.427085 0
0.643458 0.423499 0
0.724483 0.419059 0
0.802991 0.413779 0
0.879225 0.408194 0
0.949462 0.401999 0
0.994659 0.396643 0
0.994629 0.391989 0
0.994583 0.388006 0
0.994553 0.384421 0
0.994537 0.381796 0
0.994522 0.379431 0
0.994507 0.377798 0
0.994492 0.376165 0
0.994476 0.37467 0
0.994461 0.373053 0
0.994446 0.371283 0
0 0.492103 0
0 0.494743 0
0 0.497871 0
0 0.499672 0
0 0.500938 0
0 0.501945 0
0 0.502678 0
0 0.503151 0
0 0.503258 0
0 0.503319 0
0 0.503319 0
0 0.503136 0
0.0844892 0.504738 0
0.23946 0.504524 0
0.354559 0.503166 0
0.453269 0.501183 0
0.544198 0.498375 0
0.630854 0.495399 0
0.713909 0.491722 0
0.794354 0.487526 0
0.871641 0.482872 0
0.943191 0.47776 0
0.993149 0.473091 0
0.995178 0.469474 0
0.995148 0.466194 0
0.995132 0.463462 0
0.995117 0.460929 0
0.995117 0.459159 0
0.995102 0.45774 0
0.995087 0.456275 0
0.995087 0.454841 0
0.995071 0.453391 0
0.995056 0.451835 0
0 0.560388 0
0 0.563027 0
0 0.56643 0
0 0.568261 0
0 0.569528 0
0 0.570535 0
0 0.571267 0
0 0.57174 0
0 0.572168 0
0 0.572259 0
0 0.572045 0
0 0.571923 0
0.00813306 0.572641 0
0.159121 0.573617 0
0.315633 0.572961 0
0.425864 0.57145 0
0.523522 0.569345 0
0.614389 0.566888 0
0.70074 0.563699 0
0.783017 0.560128 0
0.862165 0.556222 0
0.934752 0.552102 0
0.986908 0.548135 0
0.99559 0.544747 0
0.995575 0.542214 0
0.99556 0.539834 0
0.995544 0.537881 0
0.995544 0.536019 0
0.995529 0.534722 0
0.995529 0.533303 0
0.995529 0.53228 0
0.995514 0.530892 0
0.995514 0.529503 0
0 0.628641 0
0 0.631266 0
0 0.634653 0
0 0.636484 0
0 0.637781 0
0 0.639033 0
0 0.639765 0
0 0.640238 0
0 0.640665 0
0 0.640772 0
0 0.640818 0
0 0.640482 0
0 0.640345 0
0.0857862 0.6421 0
0.258656 0.642573 0
0.390372 0.641505 0
0.497459 0.639811 0
0.594034 0.637461 0
0.684001 0.635004 0
0.769375 0.631876 0
0.850401 0.628519 0
0.924025 0.624949 0
0.978653 0.621424 0
0.99588 0.618769 0
0.99588 0.616281 0
0.995865 0.614176 0
0.995865 0.612451 0
0.995865 0.611032 0
0.99585 0.609796 0
0.99585 0.608759 0
0.99585 0.607507 0
0.995834 0.606439 0
0.995834 0.605112 0
0 0.696498 0
0 0.699077 0
0 0.702434 0
0 0.70425 0
0 0.705791 0
0 0.706783 0
0 0.707759 0
0 0.708217 0
0 0.708629 0
0 0.708782 0
0 0.708873 0
0 0.708858 0
0 0.7084 0
0 0.708064 0
0.160647 0.710735 0
0.343236 0.710506 0
0.464881 0.709224 0
0.568948 0.707485 0
0.663859 0.705104 0
0.75256 0.702647 0
0.835874 0.699626 0
0.91136 0.696544 0
0.969284 0.693401 0
0.996109 0.691005 0
0.996094 0.689067 0
0.996094 0.68719 0
0.996094 0.685603 0
0.996094 0.684276 0
0.996078 0.683131 0
0.996078 0.68217 0
0.996078 0.680964 0
0.996078 0.679973 0
0.996078 0.678614 0
0 0.763302 0
0 0.766094 0
0 0.76939 0
0 0.77142 0
0 0.772641 0
0 0.773861 0
0 0.774624 0
0 0.775326 0
0 0.775738 0
0 0.775876 0
0 0.776226 0
0 0.775952 0
0 0.775814 0
0 0.775235 0
0.0814679 0.777264 0
0.274647 0.778195 0
0.423865 0.777447 0
0.538659 0.775982 0
0.639918 0.773907 0
0.732662 0.771862 0
0.818891 0.769146 0
0.89633 0.7664 0
0.957839 0.763897 0
0.993683 0.761715 0
0.996246 0.759655 0
0.996246 0.758175 0
0.996246 0.756756 0
0.996246 0.75555 0
0.996246 0.754482 0
0.996246 0.753536 0
0.996246 0.752621 0
0.996231 0.75169 0
0.996231 0.750423 0
0 0.829175 0
0 0.831907 0
0 0.835081 0
0 0.836789 0
0 0.83827 0
0 0.839506 0
0 0.840192 0
0 0.840894 0
0 0.841321 0
0 0.841718 0
0 0.841856 0
0 0.841871 0
0 0.841733 0
0 0.841215 0
0 0.840635 0
0.179446 0.843763 0
0.370687 0.843793 0
0.502266 0.842741 0
0.611688 0.84126 0
0.709438 0.839429 0
0.799329 0.837018 0
0.879377 0.834562 0
0.942611 0.832273 0
0.984482 0.830335 0
0.996353 0.828717 0
0.996353 0.82739 0
0.996353 0.825986 0
0.996353 0.824857 0
0.996353 0.82385 0
0.996353 0.822934 0
0.996353 0.822049 0
0.996338 0.821149 0
0.996338 0.820005 0
0 0.891783 0
0 0.894347 0
0 0.897383 0
0 0.899245 0
0 0.900664 0
0 0.901595 0
0 0.90248 0
0 0.903136 0
0 0.903777 0
0 0.903899 0
0 0.904265 0
0 0.904265 0
0 0.903944 0
0 0.9037 0
0 0.903075 0
0.0727703 0.90515 0
0.299306 0.906691 0
0.458915 0.906096 0
0.579812 0.904799 0
0.683787 0.903029 0
0.777996 0.901167 0
0.860441 0.898939 0
0.925444 0.896925 0
0.974319 0.895155 0
0.996414 0.893645 0
0.996414 0.892409 0
0.996414 0.891157 0
0.996414 0.890364 0
0.996414 0.889403 0
0.996414 0.888548 0
0.996414 0.8878 0
0.996399 0.886931 0
0.996399 0.885801 0
0 0.945251 0
0 0.947585 0
0 0.950103 0
0 0.951659 0
0 0.952819 0
0 0.953735 0
0 0.954467 0
0 0.954925 0
0 0.955139 0
0 0.955306 0
0 0.955474 0
0 0.955444 0
0 0.955306 0
0 0.954849 0
0 0.954314 0
0 0.953628 0
0.221775 0.957656 0
0.415457 0.957931 0
0.548577 0.957122 0
0.659236 0.955764 0
0.757778 0.954009 0
0.842786 0.952361 0
0.909422 0.950622 0
0.96025 0.949096 0
0.98999 0.947768 0
0.996429 0.94667 0
0.996429 0.945571 0
0.996429 0.944869 0
0.996429 0.944121 0
0.996429 0.943404 0
0.996429 0.942702 0
0.996429 0.942046 0
0.996429 0.941283 0
0 0.984176 0
0 0.985794 0
0 0.987564 0
0 0.988647 0
0 0.989456 0
0 0.989456 0
0 0.989456 0
0 0.989456 0
0 0.989456 0
0 0.989456 0
0 0.989456 0
0 0.989456 0
0 0.989456 0
0 0.989456 0
0 0.989456 0
0 0.989456 0
0.150591 0.99379 0
0.373312 0.995666 0
0.520577 0.995941 0
0.637873 0.995026 0
0.739879 0.993835 0
0.827619 0.992523 0
0.895613 0.991241 0
0.947433 0.990158 0
0.983719 0.989212 0
0.996368 0.988525 0
0.996429 0.988037 0
0.996429 0.987671 0
0.996429 0.987457 0
0.996429 0.986999 0
0.996429 0.986496 0
0.996429 0.985885 0
0.996429 0.985229 0
0 0.989456 0
0 0.989456 0
0 0.989456 0
0 0.989456 0
0 0.989456 0
0 0.989456 0
0 0.989456 0
0 0.989456 0
0 0.989456 0
0 0.989456 0
0 0.989456 0
0 0.989456 0
0 0.989456 0
0 0.989456 0
0 0.989456 0
0 0.989456 0
0.0508431 0.992187 0
0.336049 0.995453 0
0.496864 0.996185 0
0.619699 0.99649 0
0.725643 0.996597 0
0.815351 0.996612 0
0.884504 0.996567 0
0.936904 0.996521 0
0.975723 0.99646 0
0.993988 0.996445 0
0.996429 0.996429 0
0.996429 0.996429 0
0.996429 0.996429 0
0.996429 0.996429 0
0.996429 0.996429 0
0.996429 0.996429 0
0.996429 0.996429 0
0 0.989456 0
0 0.989456 0
0 0.989456 0
0 0.989456 0
0 0.989456 0
0 0.989456 0
0 0.989456 0
0 0.989456 0
0 0.989456 0
0 0.989456 0
0 0.989456 0
0 0.989456 0
0 0.989456 0
0 0.989456 0
0 0.989456 0
0 0.989456 0
0 0.989456 0
0.30544 0.995239 0
0.477638 0.996124 0
0.606012 0.99646 0
0.714748 0.996597 0
0.805997 0.996612 0
0.875944 0.996582 0
0.929046 0.996521 0
0.968124 0.996475 0
0.991226 0.996445 0
0.996429 0.996429 0
0.996429 0.996429 0
0.996429 0.996429 0
0.996429 0.996429 0
0.996429 0.996429 0
0.996429 0.996429 0
0.996429 0.996429 0
0 0.989456 0
0 0.989456 0
0 0.989456 0
0 0.989456 0
0 0.989456 0
0 0.989456 0
0 0.989456 0
0 0.989456 0
0 0.989456 0
0 0.989456 0
0 0.989456 0
0 0.989456 0
0 0.989456 0
0 0.989456 0
0 0.989456 0
0 0.989456 0
0 0.989456 0
0.283162 0.995087 0
0.463981 0.996078 0
0.596399 0.996445 0
0.707134 0.996582 0
0.799191 0.996612 0
0.870008 0.996582 0
0.923384 0.996536 0
0.962615 0.99649 0
0.989319 0.996445 0
0.996353 0.996429 0
0.996429 0.996429 0
0.996429 0.996429 0
0.996429 0.996429 0
0.996429 0.996429 0
0.996429 0.996429 0
0.996429 0.996429 0
0 0.989456 0
0 0.989456 0
0 0.989456 0
0 0.989456 0
0 0.989456 0
0 0.989456 0
0 0.989456 0
0 0.989456 0
0 0.989456 0
