lut/xd_night.cube
TITLE "Generated by Resolve"
LUT_3D_SIZE 9
7.62951e-05 0.000350958 0
0.085832 0.0009308 0.000656138
0.221668 0.000534066 0.00329595
0.485908 0 0.0160525
0.77847 0 0.0476997
1 0 0.0886397
1 0 0.106523
1 0 0.110109
1 0 0.111345
0 0.0799878 0
0.0647288 0.0791028 0.00015259
0.214878 0.0733196 0.000381476
0.484367 0.0363317 0.00830091
0.777661 0 0.0399176
1 0 0.082826
1 0 0.101549
1 0 0.105287
1 0 0.106523
0 0.213962 0
0.00199893 0.214847 0
0.18381 0.213291 0
0.47567 0.201236 3.0518e-05
0.7738 0.165881 0.0105745
1 0.0858625 0.0572213
1 0.0449378 0.0806592
1 0.0330968 0.0851911
1 0.0286107 0.0866865
0 0.470222 0
0 0.472313 0
0.00233463 0.472313 0
0.418982 0.46862 0
0.74876 0.458 0
1 0.441459 0
1 0.431418 0
1 0.428611 0
1 0.426932 0
0 0.746456 0
0 0.748058 0
0 0.748638 0
0.177646 0.746761 0
0.681071 0.741497 0
0.970611 0.733303 0
1 0.728511 0
1 0.727001 0
1 0.725841 0
0 0.978851 0
0 0.979828 0
0 0.980056 0
0 0.979355 0
0.561318 0.977157 0
0.908644 0.971862 0
1 0.968597 0
1 0.967666 0
1 0.966964 0
0 1 0
0 1 0
0 1 0
0 1 0
0.477119 1 0
0.871138 1 0
0.999405 1 0
1 1 0
1 1 0
0 1 0
0 1 0
0 1 0
0 1 0
0.457801 1 0
0.863218 1 0
0.996475 1 0
1 1 0
1 1 0
0 1 0
0 1 0
0 1 0
0 1 0
0.451987 1 0
0.860716 1 0
0.995392 1 0
1 1 0
1 1 0
0 0 0.0784772
0.0803693 0 0.0799878
0.218235 0 0.0822461
0.483146 0 0.0916457
0.775753 0 0.111833
1 0 0.136889
1 0 0.149462
1 0 0.152102
1 0 0.152972
0 0.0632486 0.0727245
0.0582284 0.0620737 0.0739452
0.211383 0.0555886 0.0762951
0.48127 0.0174411 0.086183
0.77525 0 0.107301
1 0 0.133135
1 0 0.145953
1 0 0.148638
1 0 0.149508
0 0.206897 0.0465705
0.00137331 0.20763 0.047715
0.180041 0.205982 0.050248
0.472633 0.193484 0.0623178
0.77116 0.156207 0.0879683
1 0.0713664 0.11783
1 0.0317388 0.132143
1 0.0198367 0.135103
1 0.0157015 0.136049
0 0.465888 0
0 0.46772 0
0.00256352 0.467979 0
0.415839 0.464302 0
0.746273 0.453529 0
1 0.436805 0.00468452
1 0.426123 0.0179141
1 0.423255 0.0230716
1 0.421866 0.0248722
0 0.743267 0
0 0.744869 0
0 0.745205 0
0.170306 0.743572 0
0.678538 0.738308 0
0.969604 0.730068 0
1 0.7252 0
1 0.723629 0
1 0.72253 0
0 0.977249 0
0 0.978241 0
0 0.978485 0
0 0.977737 0
0.557076 0.975174 0
0.906981 0.969848 0
1 0.966628 0
1 0.965652 0
1 0.964996 0
0 1 0
0 1 0
0 1 0
0 1 0
0.470893 1 0
0.869017 1 0
0.999344 1 0
1 1 0
1 1 0
0 1 0
0 1 0
0 1 0
0 1 0
0.450401 1 0
0.860945 1 0
0.996094 1 0
1 1 0
1 1 0
0 1 0
0 1 0
0 1 0
0 1 0
0.443412 1 0
0.858381 1 0
0.994873 1 0
1 1 0
1 1 0
0 0 0.221149
0.0576944 0 0.223484
0.210193 0 0.22536
0.479622 0 0.229389
0.773663 0 0.238163
1 0 0.250278
1 0 0.25684
1 0 0.258122
1 0 0.258427
0 0.00396735 0.220295
0.0327306 0.00376898 0.222293
0.202701 0.00196841 0.223941
0.477775 0 0.227848
0.772885 0 0.236469
1 0 0.248692
1 0 0.255146
1 0 0.256413
1 0 0.25658
0 0.180255 0.213107
0 0.180728 0.215061
0.169177 0.178637 0.216342
0.468772 0.163455 0.220401
0.769085 0.113649 0.229389
1 0.0345159 0.241886
1 0 0.248539
1 0 0.249699
1 0 0.249897
0 0.456764 0.161547
0 0.458518 0.163363
0.00122072 0.458381 0.165194
0.411399 0.454566 0.170596
0.744106 0.443793 0.182391
1 0.4262 0.198398
1 0.415457 0.206912
1 0.412467 0.208469
1 0.410758 0.208896
0 0.738125 0.00921645
0 0.739925 0.0103761
0 0.74023 0.0112917
0.163165 0.738354 0.0142672
0.675975 0.732998 0.0204929
0.968566 0.724712 0.0277562
1 0.719753 0.0308995
1 0.718257 0.0308843
1 0.717098 0.0298466
0 0.974929 0
0 0.97583 0
0 0.976089 0
0 0.975189 0
0.553841 0.971771 0
0.905562 0.966461 0
1 0.963165 0
1 0.962219 0
1 0.961578 0
0 1 0
0 1 0
0 1 0
0 1 0
0.465461 1 0
0.867338 1 0
0.999054 1 0
1 1 0
1 1 0
0 1 0
0 1 0
0 1 0
0 1 0
0.444312 1 0
0.859174 1 0
0.995514 1 0
1 1 0
1 1 0
0 1 0
0 1 0
0 1 0
0 1 0
0.437812 1 0
0.856397 1 0
0.994217 1 0
1 1 0
1 1 0
0 0 0.47921
0 0 0.481697
0.164752 0 0.483406
0.465827 0 0.485374
0.766934 0 0.488975
1 0 0.493889
1 0 0.4963
1 0 0.49691
1 0 0.496635
0 0 0.479881
0 0 0.482094
0.154177 0 0.48333
0.463874 0 0.485313
0.76611 0 0.488685
1 0 0.493385
1 0 0.495781
1 0 0.496147
1 0 0.495872
0 0.0120851 0.478386
0 0.011429 0.480385
0.101686 0.00941482 0.48159
0.454429 0.00062562 0.48336
0.762234 0 0.486519
1 0 0.491203
1 0 0.493645
1 0 0.494011
1 0 0.493492
0 0.41117 0.463798
0 0.412924 0.465782
0 0.412741 0.466728
0.393851 0.408179 0.468528
0.736645 0.395209 0.471839
0.999222 0.374105 0.476783
1 0.361135 0.479072
1 0.357549 0.47924
1 0.355886 0.478996
0 0.716564 0.42298
0 0.718257 0.42501
0 0.718532 0.426017
0.137972 0.716533 0.427802
0.667613 0.711192 0.431815
0.964294 0.70251 0.437171
1 0.697078 0.439841
1 0.695521 0.440085
1 0.694453 0.439689
0 0.961501 0.350134
0 0.962356 0.352499
0 0.962509 0.353872
0 0.961212 0.356237
0.542016 0.957702 0.361166
0.900114 0.952209 0.368093
1 0.948898 0.371511
1 0.947936 0.371832
1 0.947311 0.371221
0 1 0.298238
0 1 0.30161
0 1 0.303029
0 1 0.306065
0.449516 1 0.312291
0.861433 1 0.32079
0.996826 1 0.324865
1 1 0.324681
1 1 0.323827
0 1 0.285924
0 1 0.289693
0 1 0.291798
0 1 0.29453
0.426795 1 0.301137
0.853117 1 0.310079
0.993011 1 0.314336
1 1 0.314092
1 1 0.313115
0 1 0.282933
0 1 0.28629
0 1 0.288426
0 1 0.291234
0.419837 1 0.297932
0.850324 1 0.306538
0.991226 1 0.310903
1 1 0.310628
1 1 0.309621
0 0 0.740444
0 0 0.742748
0.0260929 0 0.744015
0.434394 0 0.745617
0.752514 0 0.747463
1 0 0.750164
1 0 0.751614
1 0 0.75172
1 0 0.751369
0 0 0.741146
0 0 0.743236
0.0182345 0 0.744518
0.432135 0 0.745632
0.751675 0 0.747539
1 0 0.750011
1 0 0.751446
1 0 0.751278
1 0 0.750927
0 0 0.740963
0 0 0.742885
0.0015259 0 0.743908
0.421225 0 0.745022
0.747387 0 0.746883
1 0 0.749142
1 0 0.750362
1 0 0.750454
1 0 0.749874
0 0.270146 0.734066
0 0.273289 0.735882
0 0.273472 0.736675
0.351629 0.263523 0.737804
0.721263 0.235462 0.739483
0.991699 0.202243 0.742046
1 0.179706 0.743008
1 0.173495 0.742916
1 0.169848 0.74258
0 0.667338 0.714855
0 0.668956 0.71664
0 0.669169 0.717449
0.0769055 0.666957 0.718334
0.649317 0.660685 0.720378
0.95462 0.65095 0.722744
1 0.645212 0.723812
1 0.643549 0.723705
1 0.642405 0.723156
0 0.930999 0.685145
0 0.931823 0.6869
0 0.931899 0.687739
0 0.93051 0.688746
0.516304 0.926833 0.690608
0.888701 0.921111 0.693156
1 0.917617 0.694316
1 0.91664 0.694163
1 0.91603 0.693584
0 1 0.667887
0 1 0.670054
0 1 0.670741
0 1 0.671778
0.41384 1 0.673777
0.84918 1 0.676402
0.990845 1 0.677501
1 1 0.677104
1 1 0.676432
0 1 0.664942
0 1 0.666896
0 1 0.667597
0 1 0.668742
0.38677 1 0.670649
0.84062 1 0.67306
0.983963 1 0.674159
1 1 0.673991
1 1 0.673014
0 1 0.664286
0 1 0.666346
0 1 0.667048
0 1 0.668116
0.37789 1 0.66981
0.837919 1 0.67245
0.981521 1 0.673594
1 1 0.673075
1 1 0.672435
0 0 0.947219
0 0 0.948531
0 0 0.949172
0.389075 0 0.94995
0.733898 0 0.951339
0.999542 0 0.95314
1 0 0.954147
1 0 0.954208
1 0 0.954086
0 0 0.947585
0 0 0.94873
0 0 0.949203
0.386069 0 0.950011
0.732982 0 0.951247
0.998749 0 0.952926
1 0 0.953826
1 0 0.953964
1 0 0.95375
0 0 0.947265
0 0 0.948226
0 0 0.948684
0.373541 0 0.949279
0.728603 0 0.950515
0.995972 0 0.952209
1 0 0.953079
1 0 0.953124
1 0 0.952926
0 0 0.942184
0 0 0.943084
0 0 0.943557
0.28426 0 0.944121
0.70106 0 0.945266
0.981292 0 0.947036
1 0 0.947768
1 0 0.947784
1 0 0.947677
0 0.595743 0.929198
0 0.597559 0.92987
0 0.597848 0.930251
0 0.595468 0.930907
0.625803 0.588083 0.932097
0.941772 0.576471 0.933776
1 0.569223 0.934585
1 0.567132 0.934646
1 0.565713 0.934371
0 0.890013 0.909331
0 0.890944 0.910079
0 0.891066 0.910475
0 0.889616 0.911055
0.482307 0.885649 0.912276
0.874434 0.879438 0.914015
0.999527 0.875685 0.914855
1 0.874647 0.914885
1 0.87393 0.914641
0 0.99852 0.898222
0 0.998505 0.899062
0 0.998413 0.899382
0 0.997864 0.899977
0.359228 0.996399 0.901213
0.833814 0.993683 0.902983
0.978943 0.990784 0.903822
1 0.990066 0.903731
1 0.989761 0.903471
0 1 0.896025
0 1 0.896864
0 1 0.897215
0 1 0.897841
0.333135 1 0.899062
0.824887 1 0.90071
0.971771 1 0.901534
0.99942 1 0.901427
1 1 0.901167
0 1 0.895521
0 1 0.896345
0 1 0.896696
0 1 0.897337
0.324987 1 0.898451
0.82211 1 0.900206
0.969207 1 0.900999
0.997436 1 0.900847
1 1 0.900481
0 0 1
0 0 1
0 0 1
0.365835 0 1
0.725505 0 1
0.99469 0 1
1 0 1
1 0 1
1 0 1
0 0 1
0 0 1
0 0 1
0.3626 0 1
0.72433 0 1
0.993942 0 1
1 0 1
1 0 1
1 0 1
0 0 1
0 0 1
0 0 1
0.348867 0 1
0.719829 0 1
0.991196 0 1
1 0 1
1 0 1
1 0 1
0 0 1
0 0 1
0 0 1
0.240665 0 1
0.692088 0 1
0.976532 0 1
1 0 1
1 0 1
1 0 1
0 0.55819 1
0 0.56083 1
0 0.561212 1
0 0.558312 1
0.614694 0.550164 1
0.935958 0.537224 1
1 0.529107 1
1 0.526711 1
1 0.525048 1
0 0.870314 0.988174
0 0.87158 0.988266
0 0.871611 0.988418
0 0.870115 0.988861
0.46566 0.86598 0.989914
0.867811 0.859617 0.991516
0.998489 0.855634 0.992432
1 0.85452 0.992538
1 0.853681 0.992584
0 0.987121 0.978149
0 0.987381 0.978317
0 0.987167 0.978439
0 0.985855 0.978943
0.33695 0.982452 0.97998
0.826825 0.977325 0.981582
0.973342 0.974304 0.982452
0.999695 0.973495 0.982635
1 0.973144 0.982635
0 1 0.975967
0 1 0.976165
0 1 0.976333
0 1 0.976791
0.310552 1 0.97789
0.817761 0.999542 0.979461
0.966079 0.997269 0.980377
0.994522 0.996628 0.980453
1 0.996384 0.980468
0 1 0.97525
0 1 0.975509
0 1 0.975616
0 1 0.97612
0.300938 1 0.977142
0.814954 1 0.97879
0.963623 1 0.979599
0.992004 1 0.979751
1 1 0.979751
0 0 1
0 0 1
0 0 1
0.361563 0 1
0.724239 0 1
0.99379 0 1
1 0 1
1 0 1
1 0 1
0 0 1
0 0 1
0 0 1
0.358282 0 1
0.723079 0 1
0.993057 0 1
1 0 1
1 0 1
1 0 1
0 0 1
0 0 1
0 0 1
0.344228 0 1
0.718547 0 1
0.990326 0 1
1 0 1
1 0 1
1 0 1
0 0 1
0 0 1
0 0 1
0.230335 0 1
0.690394 0 1
0.975753 0 1
1 0 1
1 0 1
1 0 1
0 0.550866 1
0 0.553155 1
0 0.553628 1
0 0.551034 1
0.61297 0.542687 1
0.934966 0.529519 1
1 0.521172 1
1 0.5187 1
1 0.516945 1
0 0.866606 0.999893
0 0.867735 0.999908
0 0.867918 0.999908
0 0.866423 1
0.463142 0.862303 1
0.866773 0.855833 1
0.99826 0.851865 1
1 0.85069 1
1 0.849882 1
0 0.983841 0.993011
0 0.9841 0.993042
0 0.983993 0.993149
0 0.982651 0.993591
0.333715 0.979232 0.994644
0.825559 0.974029 0.996231
0.97229 0.970962 0.997131
0.999344 0.970199 0.99733
1 0.969848 0.997391
0 1 0.99086
0 1 0.990921
0 1 0.991028
0 1 0.991485
0.306645 0.999969 0.992523
0.816724 0.996857 0.994141
0.965057 0.994018 0.995056
0.993408 0.993378 0.995178
1 0.993133 0.995254
0 1 0.990143
0 1 0.990204
0 1 0.990311
0 1 0.990784
0.297963 1 0.991821
0.813718 1 0.993378
0.962493 1 0.994263
0.990906 1 0.994461
1 1 0.994492
0 0 1
0 0 1
0 0 1
0.360861 0 1
0.724422 0 1
0.993454 0 1
1 0 1
1 0 1
1 0 1
0 0 1
0 0 1
0 0 1
0.357549 0 1
0.723247 0 1
0.992767 0 1
1 0 1
1 0 1
1 0 1
0 0 1
0 0 1
0 0 1
0.342962 0 1
0.718746 0 1
0.990051 0 1
1 0 1
1 0 1
1 0 1
0 0 1
0 0 1
0 0 1
0.226749 0 1
0.690532 0 1
0.975525 0 1
1 0 1
1 0 1
1 0 1
0 0.548424 1
0 0.551156 1
0 0.551644 1
0 0.548669 1
0.612696 0.540276 1
0.934752 0.526986 1
1 0.518563 1
1 0.516075 1
1 0.514351 1
0 0.865385 1
0 0.866712 1
0 0.866743 1
0 0.865232 1
0.462898 0.861051 1
0.86656 0.854597 1
0.998169 0.850629 1
1 0.84947 1
1 0.848615 1
0 0.982681 0.998566
0 0.983001 0.998581
0 0.982818 0.998657
0 0.981506 0.999084
0.336049 0.978058 0.999802
0.825376 0.972808 1
0.971969 0.969787 1
0.9991 0.969009 1
1 0.968612 1
0 1 0.996445
0 1 0.996429
0 1 0.996536
0 1 0.996963
0.307179 0.999802 0.998016
0.816602 0.995636 0.999588
0.964767 0.992782 1
0.993011 0.992126 1
1 0.991882 1
0 1 0.995605
0 1 0.995697
0 1 0.995743
0 1 0.99617
0.298314 1 0.997284
0.813596 1 0.998871
0.962219 1 0.999756
0.990494 1 0.999893
1 1 1
