lut/xd_night.cube
TITLE "Generated by Resolve"
LUT_3D_SIZE 33
7.62951e-05 0.000350958 0
0.0181277 0.000579843 0.000106813
0.0387121 0.00077821 0.000289921
0.0621195 0.000869764 0.000396735
0.085832 0.0009308 0.000656138
0.111757 0.000961318 0.000991836
0.142382 0.0009308 0.00146487
0.178378 0.000793469 0.00218204
0.221668 0.000534066 0.00329595
0.275578 0.000183108 0.00491341
0.340627 0 0.00750744
0.411994 0 0.0112459
0.485908 0 0.0160525
0.560143 0 0.0220951
0.633616 0 0.0293584
0.706615 0 0.0378424
0.77847 0 0.0476997
0.848798 0 0.0586252
0.917113 0 0.0697642
0.978058 0 0.0801709
1 0 0.0886397
1 0 0.0952163
1 0 0.100282
1 0 0.10396
1 0 0.106523
1 0 0.108186
1 0 0.109224
1 0 0.109743
1 0 0.110109
1 0 0.110521
1 0 0.111284
1 0 0.111345
1 0 0.111345
0.000198367 0.0170901 0
0.0130312 0.0169375 0
0.0336767 0.0165713 0
0.0572824 0.0162356 0
0.0819562 0.0156863 9.15541e-05
0.108736 0.0148775 0.000198367
0.140032 0.0135958 0.000320439
0.176608 0.0116274 0.00077821
0.22034 0.00856031 0.00177005
0.274632 0.00456245 0.00340276
0.339757 0.00167849 0.00601205
0.411627 0.000396735 0.00967422
0.485634 0 0.0144961
0.559686 0 0.0205234
0.633249 0 0.0277256
0.706294 0 0.0363317
0.778164 0 0.0460822
0.848569 0 0.057023
0.916915 0 0.0683604
0.977935 0 0.0788739
1 0 0.0874647
1 0 0.0941482
1 0 0.0992294
1 0 0.102968
1 0 0.105562
1 0 0.107225
1 0 0.108217
1 0 0.108766
1 0 0.109194
1 0 0.10959
1 0 0.110277
1 0 0.110369
1 0 0.110338
0.00015259 0.0357824 0
0.00733959 0.0356756 0
0.0280003 0.0354009 0
0.0517433 0.0349889 7.62951e-05
0.0774853 0.0344549 0.000167849
0.105226 0.0336614 0.000213626
0.137346 0.0323339 0.00030518
0.174563 0.030396 0.000366217
0.218814 0.0272984 0.000656138
0.273579 0.0222629 0.00183108
0.339025 0.014313 0.00430304
0.411139 0.0059968 0.00794995
0.485328 0.00109865 0.0128023
0.559472 0 0.0188296
0.633097 0 0.0260471
0.706218 0 0.0345312
0.77818 0 0.0444038
0.848539 0 0.0553597
0.91693 0 0.0668803
0.977844 0 0.0774853
1 0 0.0861524
1 0 0.092958
1 0 0.098085
1 0 0.101793
1 0 0.104417
1 0 0.106142
1 0 0.107149
1 0 0.107683
1 0 0.108095
1 0 0.108537
1 0 0.109194
1 0 0.109285
1 0 0.109255
3.0518e-05 0.057023 0
0.00210575 0.0568856 0
0.0213626 0.0566873 6.10361e-05
0.0451362 0.0563211 0.000122072
0.0720836 0.0557565 0.000167849
0.101137 0.0550088 0.000244144
0.134127 0.0537575 0.000289921
0.17229 0.0518654 0.000335698
0.217029 0.0488899 0.000411994
0.272297 0.0439612 0.00077821
0.338155 0.0360723 0.0024567
0.410544 0.0246281 0.00596628
0.484947 0.0109255 0.0108034
0.559197 0.00201419 0.016846
0.632914 6.10361e-05 0.0240787
0.706127 0 0.0325933
0.777829 0 0.0424048
0.84828 0 0.0533608
0.916686 0 0.0650339
0.977722 0 0.0759136
1 0 0.0846723
1 0 0.0915541
1 0 0.0967269
1 0 0.100511
1 0 0.103182
1 0 0.10486
1 0 0.105882
1 0 0.106477
1 0 0.106874
1 0 0.107301
1 0 0.107988
1 0 0.108049
1 0 0.108049
0 0.0799878 0
0.000686656 0.0799268 1.5259e-05
0.0131991 0.0797894 6.10361e-05
0.0370642 0.079469 0.000106813
0.0647288 0.0791028 0.00015259
0.0956588 0.0785077 0.000198367
0.130175 0.0774853 0.000259403
0.169192 0.0758831 0.00030518
0.214878 0.0733196 0.000381476
0.270619 0.0690166 0.000503548
0.337255 0.0617533 0.00112917
0.409735 0.0511177 0.00367742
0.484367 0.0363317 0.00830091
0.558785 0.0177768 0.0143435
0.632639 0.0053254 0.0215763
0.705882 0.000518807 0.0301061
0.777661 0 0.0399176
0.848173 0 0.0508888
0.916564 0 0.0627451
0.977523 0 0.0739147
1 0 0.082826
1 0 0.0897688
1 0 0.0950637
1 0 0.0988937
1 0 0.101549
1 0 0.103273
1 0 0.104341
1 0 0.104921
1 0 0.105287
1 0 0.105745
1 0 0.106447
1 0 0.106554
1 0 0.106523
0 0.105562 0
0.000198367 0.105592 3.0518e-05
0.00479133 0.105501 4.57771e-05
0.0254673 0.105379 6.10361e-05
0.0537575 0.10515 7.62951e-05
0.0874342 0.104631 9.15541e-05
0.124025 0.103883 0.000122072
0.164614 0.102693 0.000167849
0.211475 0.100725 0.000228885
0.268391 0.0974289 0.000335698
0.335485 0.0919814 0.000518807
0.408453 0.0834669 0.00151064
0.483436 0.0712139 0.00500496
0.558068 0.0545815 0.0108034
0.632105 0.0330663 0.0180209
0.705455 0.0146334 0.0265965
0.77734 0.00112917 0.0363622
0.847913 0 0.0473487
0.916335 0 0.0593881
0.977157 0 0.0708629
1 0 0.0800793
1 0 0.0872206
1 0 0.092607
1 0 0.0965286
1 0 0.0992142
1 0 0.100954
1 0 0.102052
1 0 0.102647
1 0 0.103059
1 0 0.103502
1 0 0.104234
1 0 0.104326
1 0 0.104311
0 0.135683 0
0 0.135821 0
0.000793469 0.135943 0
0.0105287 0.13579 0
0.0366674 0.135683 0
0.0733654 0.135348 0
0.11429 0.134798 1.5259e-05
0.157565 0.133913 3.0518e-05
0.20618 0.132433 6.10361e-05
0.264561 0.129915 0.000106813
0.332723 0.125811 0.000228885
0.406699 0.119493 0.000442512
0.481895 0.110842 0.00177005
0.556878 0.0988479 0.00576791
0.631159 0.0822461 0.0126345
0.704692 0.0603342 0.0212711
0.776699 0.0342718 0.0309758
0.847379 0.0152132 0.0420233
0.915877 0 0.0541695
0.976699 0 0.0661326
1 0 0.0758068
1 0 0.0832074
1 0 0.088838
1 0 0.0928511
1 0 0.0956588
1 0 0.0974594
1 0 0.0985275
1 0 0.0991836
1 0 0.0995956
1 0 0.100038
1 0 0.100786
1 0 0.100862
1 0 0.100862
0 0.17116 0
0 0.171496 0
0 0.171618 0
0.00143435 0.171664 0
0.0148318 0.171527 0
0.0497597 0.171313 0
0.0975204 0.170932 0
0.145937 0.170275 0
0.197803 0.169207 0
0.258518 0.16733 0
0.328374 0.164218 3.0518e-05
0.403479 0.159457 0.000122072
0.479423 0.153017 0.00030518
0.55494 0.144686 0.00158694
0.629847 0.133639 0.0053254
0.70341 0.119295 0.0132143
0.775647 0.10016 0.0229343
0.846433 0.0747234 0.0340276
0.915099 0.0473945 0.0461891
0.975982 0.026215 0.0586252
1 0.00697337 0.0690013
1 0 0.0769207
1 0 0.0828412
1 0 0.0870985
1 0 0.090074
1 0 0.0919814
1 0 0.0930953
1 0 0.0937667
1 0 0.0941939
1 0 0.094667
1 0 0.0954452
1 0 0.0955673
1 0 0.0955367
0 0.213962 0
0 0.214496 0
0 0.214725 0
0 0.214893 0
0.00199893 0.214847 0
0.0191043 0.21474 0
0.0648814 0.214496 0
0.125124 0.214054 0
0.18381 0.213291 0
0.248539 0.211917 0
0.321553 0.209461 0
0.39823 0.206043 0
0.47567 0.201236 3.0518e-05
0.551781 0.195056 0.00015259
0.627237 0.187457 0.000793469
0.701259 0.177813 0.00373846
0.7738 0.165881 0.0105745
0.844907 0.15111 0.0214084
0.91371 0.132174 0.0335851
0.974792 0.108461 0.0462043
1 0.0858625 0.0572213
1 0.0708019 0.0661021
1 0.060441 0.072694
1 0.0518196 0.077409
1 0.0449378 0.0806592
1 0.0399634 0.0827649
1 0.0364843 0.0840162
1 0.0345617 0.0846876
1 0.0330968 0.0851911
1 0.0316014 0.0857252
1 0.0290379 0.0865797
1 0.0287785 0.0866865
1 0.0286107 0.0866865
0 0.267659 0
0 0.268391 0
0 0.268711 0
0 0.268818 0
0 0.269078 0
0.00247196 0.269078 0
0.0224155 0.269001 0
0.0793317 0.268742 0
0.156802 0.268223 0
0.231098 0.267079 0
0.309224 0.265446 0
0.389273 0.262776 0
0.468818 0.259403 0
0.546609 0.254887 0
0.622843 0.249348 1.5259e-05
0.697581 0.242557 0.000183108
0.770657 0.234485 0.00169375
0.842206 0.224933 0.00511177
0.91133 0.213626 0.0129854
0.972778 0.201068 0.0256352
1 0.188922 0.0368505
1 0.177752 0.0462654
1 0.168093 0.0535439
1 0.15967 0.0591287
1 0.153582 0.062974
1 0.149325 0.0654002
1 0.146105 0.0669871
1 0.144488 0.0678569
1 0.14342 0.0683909
1 0.14168 0.0690471
1 0.139086 0.0700999
1 0.138857 0.0701762
1 0.138338 0.0702525
0 0.33109 0
0 0.331762 0
0 0.332143 0
0 0.332525 0
0 0.332891 0
0 0.332982 0
0.00236515 0.332998 0
0.0239719 0.332921 0
0.0972152 0.332341 0
0.199207 0.331701 0
0.288609 0.330312 0
0.374609 0.328542 0
0.457816 0.325902 0
0.537896 0.322576 0
0.615747 0.31873 0
0.69163 0.313832 0
0.765606 0.308171 0
0.837797 0.301534 0.000122072
0.9075 0.293889 0.00146487
0.96965 0.285756 0.00425727
1 0.277897 0.00798047
1 0.271336 0.0146029
1 0.265934 0.0221103
1 0.261692 0.0278782
1 0.258305 0.0320439
1 0.256229 0.0346532
1 0.254948 0.0363012
1 0.253849 0.0373236
1 0.253376 0.0379797
1 0.252461 0.0387427
1 0.251514 0.0399176
1 0.251057 0.040116
1 0.250675 0.0402533
0 0.400076 0
0 0.400763 0
0 0.401236 0
0 0.401648 0
0 0.401801 0
0 0.401953 0
0 0.402045 0
0.00202945 0.402045 0
0.0330816 0.401877 0
0.134798 0.401175 0
0.255299 0.400366 0
0.352453 0.398825 0
0.441535 0.39678 0
0.52517 0.394522 0
0.605493 0.391424 0
0.683131 0.387762 0
0.758373 0.383505 0
0.831525 0.378622 0
0.901961 0.373098 0
0.96524 0.367224 1.5259e-05
1 0.361944 0.000259403
1 0.357107 0.00115969
1 0.353414 0.00234989
1 0.350576 0.00325017
1 0.348226 0.0039826
1 0.346868 0.0043946
1 0.346044 0.00466926
1 0.34522 0.00492866
1 0.344915 0.00503548
1 0.344198 0.00526436
1 0.343557 0.00549325
1 0.34316 0.00563058
1 0.34284 0.00575265
0 0.470222 0
0 0.471168 0
0 0.471656 0
0 0.471824 0
0 0.472313 0
0 0.472465 0
0 0.472587 0
0 0.472374 0
0.00233463 0.472313 0
0.0651102 0.471992 0
0.199344 0.471122 0
0.320378 0.469947 0
0.418982 0.46862 0
0.508049 0.46659 0
0.59176 0.464164 0
0.671763 0.461311 0
0.74876 0.458 0
0.823331 0.4542 0
0.894636 0.449928 0
0.959503 0.445487 0
1 0.441459 0
1 0.438087 0
1 0.435019 0
1 0.432929 0
1 0.431418 0
1 0.430121 0
1 0.42948 0
1 0.42884 0
1 0.428611 0
1 0.428016 0
1 0.427268 0
1 0.427222 0
1 0.426932 0
0 0.540444 0
0 0.541192 0
0 0.541634 0
0 0.542123 0
0 0.54229 0
0 0.542519 0
0 0.542641 0
0 0.542687 0
0 0.542428 0
0.0018616 0.54226 0
0.11104 0.541558 0
0.272435 0.540841 0
0.388449 0.539559 0
0.485542 0.537942 0
0.57409 0.535912 0
0.657359 0.533593 0
0.736675 0.530953 0
0.812848 0.527871 0
0.885527 0.524437 0
0.951949 0.520928 0
0.997604 0.517769 0
1 0.515038 0
1 0.512627 0
1 0.510964 0
1 0.509468 0
1 0.508659 0
1 0.508202 0
1 0.507652 0
1 0.507439 0
1 0.506935 0
1 0.50634 0
1 0.50631 0
1 0.50602 0
0 0.609964 0
0 0.610727 0
0 0.611231 0
0 0.611643 0
0 0.611872 0
0 0.612039 0
0 0.612222 0
0 0.612314 0
0 0.612116 0
0 0.611994 0
0.0278477 0.611399 0
0.183673 0.610803 0
0.345846 0.60972 0
0.456153 0.608392 0
0.551553 0.606699 0
0.639216 0.604807 0
0.721569 0.602533 0
0.799924 0.6 0
0.87425 0.597223 0
0.941863 0.594293 0
0.990112 0.591699 0
1 0.589212 0
1 0.587442 0
1 0.586069 0
1 0.584833 0
1 0.584192 0
1 0.58352 0
1 0.583261 0
1 0.582849 0
1 0.582666 0
1 0.582177 0
1 0.581888 0
1 0.581888 0
0 0.678676 0
0 0.679423 0
0 0.679911 0
0 0.680385 0
0 0.680552 0
0 0.680781 0
0 0.680919 0
0 0.681025 0
0 0.681071 0
0 0.680766 0
0 0.680293 0
0.103273 0.67982 0
0.280247 0.678904 0
0.417243 0.677745 0
0.523171 0.676326 0
0.616846 0.674678 0
0.70312 0.672816 0
0.784344 0.670634 0
0.860716 0.668284 0
0.929824 0.665797 0
0.981216 0.663569 0
1 0.661479 0
1 0.659998 0
1 0.658869 0
1 0.657801 0
1 0.657267 0
1 0.656657 0
1 0.656474 0
1 0.656107 0
1 0.655924 0
1 0.655436 0
1 0.655161 0
1 0.654902 0
0 0.746456 0
0 0.747189 0
0 0.747662 0
0 0.74789 0
0 0.748058 0
0 0.748272 0
0 0.748425 0
0 0.748547 0
0 0.748638 0
0 0.748379 0
0 0.747951 0
0 0.747555 0
0.177646 0.746761 0
0.363943 0.745769 0
0.487495 0.744579 0
0.589593 0.743145 0
0.681071 0.741497 0
0.76585 0.739635 0
0.844465 0.73756 0
0.915465 0.73547 0
0.970611 0.733303 0
0.999527 0.731701 0
1 0.730434 0
1 0.729213 0
1 0.728511 0
1 0.727794 0
1 0.727504 0
1 0.727108 0
1 0.727001 0
1 0.726635 0
1 0.726375 0
1 0.726085 0
1 0.725841 0
0 0.812482 0
0 0.813169 0
0 0.813626 0
0 0.813809 0
0 0.814038 0
0 0.814221 0
0 0.814374 0
0 0.814511 0
0 0.814374 0
0 0.814359 0
0 0.813977 0
0 0.813672 0
0.0872053 0.812985 0
0.284779 0.8121 0
0.441489 0.811078 0
0.556619 0.809796 0
0.655055 0.808362 0
0.744289 0.806775 0
0.826017 0.804929 0
0.89929 0.802838 0
0.957412 0.80119 0
0.994736 0.799802 0
1 0.798428 0
1 0.797574 0
1 0.796963 0
1 0.796353 0
1 0.796109 0
1 0.795712 0
1 0.795361 0
1 0.795254 0
1 0.794827 0
1 0.794568 0
1 0.794568 0
0 0.876188 0
0 0.876799 0
0 0.877241 0
0 0.877455 0
0 0.877653 0
0 0.877806 0
0 0.877989 0
0 0.878111 0
0 0.878004 0
0 0.878019 0
0 0.877653 0
0 0.87718 0
0 0.876753 0
0.180789 0.875959 0
0.380697 0.875059 0
0.517006 0.87396 0
0.624796 0.872679 0
0.719295 0.87126 0
0.805264 0.869398 0
0.881086 0.867735 0
0.940932 0.866255 0
0.983536 0.864836 0
1 0.863844 0
1 0.863096 0
1 0.862303 0
1 0.861952 0
1 0.861509 0
1 0.861372 0
1 0.861051 0
1 0.860716 0
1 0.860578 0
1 0.860349 0
1 0.860121 0
0 0.933913 0
0 0.934478 0
0 0.934661 0
0 0.935012 0
0 0.935149 0
0 0.935302 0
0 0.935439 0
0 0.935515 0
0 0.935409 0
0 0.935409 0
0 0.935103 0
0 0.934661 0
0 0.934081 0
0.0704662 0.933379 0
0.302831 0.932555 0
0.47187 0.931548 0
0.592355 0.930358 0
0.693401 0.929091 0
0.78352 0.927626 0
0.862211 0.926131 0
0.924025 0.92462 0
0.970947 0.923522 0
0.997375 0.922637 0
1 0.921736 0
1 0.921248 0
1 0.920745 0
1 0.920562 0
1 0.920226 0
1 0.92018 0
1 0.919921 0
1 0.919539 0
1 0.919341 0
1 0.919341 0
0 0.978851 0
0 0.979248 0
0 0.979492 0
0 0.979736 0
0 0.979828 0
0 0.97995 0
0 0.980056 0
0 0.979995 0
0 0.980056 0
0 0.979965 0
0 0.979934 0
0 0.979675 0
0 0.979355 0
0 0.978943 0
0.225025 0.978454 0
0.4262 0.977905 0
0.561318 0.977157 0
0.669261 0.975937 0
0.763607 0.974594 0
0.845151 0.973098 0
0.908644 0.971862 0
0.957061 0.970825 0
0.989303 0.969848 0
1 0.969207 0
1 0.968597 0
1 0.968307 0
1 0.968002 0
1 0.967895 0
1 0.967666 0
1 0.967468 0
1 0.967285 0
1 0.967117 0
1 0.966964 0
0 1 0
0 1 0
0 1 0
0 1 0
0 1 0
0 1 0
0 1 0
0 1 0
0 1 0
0 1 0
0 1 0
0 1 0
0 1 0
0 1 0
0.143648 1 0
0.38056 1 0
0.532982 0.999832 0
0.648249 0.999222 0
0.746532 0.998535 0
0.830503 0.997848 0
0.895537 0.997208 0
0.945037 0.996658 0
0.981018 0.996216 0
0.998566 0.995865 0
1 0.995621 0
1 0.995453 0
1 0.995361 0
1 0.99527 0
1 0.995224 0
1 0.995178 0
1 0.995026 0
1 0.994995 0
1 0.994995 0
0 1 0
0 1 0
0 1 0
0 1 0
0 1 0
0 1 0
0 1 0
0 1 0
0 1 0
0 1 0
0 1 0
0 1 0
0 1 0
0 1 0
0.0451057 1 0
0.337102 1 0
0.509468 1 0
0.630777 1 0
0.732219 1 0
0.818433 1 0
0.884825 1 0
0.935119 1 0
0.972625 1 0
0.994675 1 0
1 1 0
1 1 0
1 1 0
1 1 0
1 1 0
1 1 0
1 1 0
1 1 0
1 1 0
0 1 0
0 1 0
0 1 0
0 1 0
0 1 0
0 1 0
0 1 0
0 1 0
0 1 0
0 1 0
0 1 0
0 1 0
0 1 0
0 1 0
0 1 0
0.304891 1 0
0.49073 1 0
0.617334 1 0
0.721508 1 0
0.8094 1 0
0.876799 1 0
0.927749 1 0
0.965637 1 0
0.99086 1 0
1 1 0
1 1 0
1 1 0
1 1 0
1 1 0
1 1 0
1 1 0
1 1 0
1 1 0
0 1 0
0 1 0
0 1 0
0 1 0
0 1 0
0 1 0
0 1 0
0 1 0
0 1 0
0 1 0
0 1 0
0 1 0
0 1 0
0 1 0
0 1 0
0.28365 1 0
0.477119 1 0
0.607263 1 0
0.713878 1 0
0.803021 1 0
0.871138 1 0
0.92253 1 0
0.960571 1 0
0.987655 1 0
0.999405 1 0
1 1 0
1 1 0
1 1 0
1 1 0
1 1 0
1 1 0
1 1 0
1 1 0
0 1 0
0 1 0
0 1 0
0 1 0
0 1 0
0 1 0
0 1 0
0 1 0
0 1 0
0 1 0
0 1 0
0 1 0
0 1 0
0 1 0
0 1 0
0.267552 1 0
0.468223 1 0
0.600916 1 0
0.708934 1 0
0.798886 1 0
0.86746 1 0
0.919127 1 0
0.957351 1 0
0.984771 1 0
0.99826 1 0
1 1 0
1 1 0
1 1 0
1 1 0
1 1 0
1 1 0
1 1 0
1 1 0
0 1 0
0 1 0
0 1 0
0 1 0
0 1 0
0 1 0
0 1 0
0 1 0
0 1 0
0 1 0
0 1 0
0 1 0
0 1 0
0 1 0
0 1 0
0.258228 1 0
0.462257 1 0
0.597223 1 0
0.706096 1 0
0.796201 1 0
0.865125 1 0
0.917006 1 0
0.955474 1 0
0.982971 1 0
0.99736 1 0
1 1 0
1 1 0
1 1 0
1 1 0
1 1 0
1 1 0
1 1 0
1 1 0
0 1 0
0 1 0
0 1 0
0 1 0
0 1 0
0 1 0
0 1 0
0 1 0
0 1 0
