lut/xd_night.cube
TITLE "Generated by Resolve"
LUT_3D_SIZE 5
7.62951e-05 0.000350958 0
0.221668 0.000534066 0.00329595
0.77847 0 0.0476997
1 0 0.106523
1 0 0.111345
0 0.213962 0
0.18381 0.213291 0
0.7738 0.165881 0.0105745
1 0.0449378 0.0806592
1 0.0286107 0.0866865
0 0.746456 0
0 0.748638 0
0.681071 0.741497 0
1 0.728511 0
1 0.725841 0
0 1 0
0 1 0
0.477119 1 0
0.999405 1 0
1 1 0
0 1 0
0 1 0
0.451987 1 0
0.995392 1 0
1 1 0
0 0 0.221149
0.210193 0 0.22536
0.773663 0 0.238163
1 0 0.25684
1 0 0.258427
0 0.180255 0.213107
0.169177 0.178637 0.216342
0.769085 0.113649 0.229389
1 0 0.248539
1 0 0.249897
0 0.738125 0.00921645
0 0.74023 0.0112917
0.675975 0.732998 0.0204929
1 0.719753 0.0308995
1 0.717098 0.0298466
0 1 0
0 1 0
0.465461 1 0
0.999054 1 0
1 1 0
0 1 0
0 1 0
0.437812 1 0
0.994217 1 0
1 1 0
0 0 0.740444
0.0260929 0 0.744015
0.752514 0 0.747463
1 0 0.751614
1 0 0.751369
0 0 0.740963
0.0015259 0 0.743908
0.747387 0 0.746883
1 0 0.750362
1 0 0.749874
0 0.667338 0.714855
0 0.669169 0.717449
0.649317 0.660685 0.720378
1 0.645212 0.723812
1 0.642405 0.723156
0 1 0.667887
0 1 0.670741
0.41384 1 0.673777
0.990845 1 0.677501
1 1 0.676432
0 1 0.664286
0 1 0.667048
0.37789 1 0.66981
0.981521 1 0.673594
1 1 0.672435
0 0 1
0 0 1
0.725505 0 1
1 0 1
1 0 1
0 0 1
0 0 1
0.719829 0 1
1 0 1
1 0 1
0 0.55819 1
0 0.561212 1
0.614694 0.550164 1
1 0.529107 1
1 0.525048 1
0 0.987121 0.978149
0 0.987167 0.978439
0.33695 0.982452 0.97998
0.973342 0.974304 0.982452
1 0.973144 0.982635
0 1 0.97525
0 1 0.975616
0.300938 1 0.977142
0.963623 1 0.979599
1 1 0.979751
0 0 1
0 0 1
0.724422 0 1
1 0 1
1 0 1
0 0 1
0 0 1
0.718746 0 1
1 0 1
1 0 1
0 0.548424 1
0 0.551644 1
0.612696 0.540276 1
1 0.518563 1
1 0.514351 1
0 0.982681 0.998566
0 0.982818 0.998657
0.336049 0.978058 0.999802
0.971969 0.969787 1
1 0.968612 1
0 1 0.995605
0 1 0.995743
0.298314 1 0.997284
0.962219 1 0.999756
1 1 1
